!! 00000] ST[
!!!OTL: Sakura
!!!ARE: Asia, Ostasien, Japan
!!!YOR: Schaffrath: Musik in Asien II, S. 78
!!!SCT: I0001
!!!YEM: Copyright 1995, estate of Helmut Schaffrath.
**kern
*ICvox
*Ivox
*M4/4
*k[]
*C:
{4a
4a
4b
4r
=1
4a
4a
4.b
8r}
=2
{4a
4b
4cc
4b
=3
4a
8b
8a
4.f
8r}
=4
{4e
4c
4e
4f
=5
4e
8e
8c
4.B
8r}
=6
{4a
4b
4cc
4b
=7
4a
8b
8a
4.f
8r}
=8
{4e
4c
4e
4f
=9
4e
8e
8c
4.B
8r}
=10
{4a
4a
4b
4r
=11
4a
4a
2b}
=12
{4r
4e
2f
=13
8b
8a
4f
2e}
==
!!!AGN: Volkslied
!! 
!!!AMT: simple quadruple
!!!AIN: vox
!!!EED: Helmut Schaffrath
!!!EEV: 1.0
*-
